X:1
T:Title
%%score { 1 | ( 2 3 ) }
L:1/8
Q:1/4=120
M:4/4
K:Bb
V:1 treble nm="Church Organ"
V:2 bass 
V:3 bass 
V:1
 G2 _A2 B2 [Ge]2 | [Ec]2 [_Ad]2 [Ge]2 [EB]2 | [E_A]2 [FB]2 [B,EG]2 [B,E]2 | %3
w: DEVICE=GENERAL.MDV * * *|||
 [B,CF]2 .[A,DF]2 [B,DF]4 | [B,EG]2 [B,D_A]2 [B,EB]2 [Ge]2 | [Ec]2 [_Ad]2 [Ge]2 [EB]2 | %6
w: |||
 [E_A]2 [FB]2 [B,EG]2 [B,E]2 | [B,CF]2 .[A,DF]2 [B,DF]4 | [B,DF]2 [B,F]2 [B,EG]2 [B,EB]2 | %9
w: |||
 [CFB]2 [CFA]2 [B,FB]2 [Fd]2 | [Gd]2 [DGd]2 [EGc]2 .GA | [GB]2 [^FA]2 G4 | B2 B2 B2 [Ee]2 | %13
w: ||||
 [E_A]2 [Ec]2 c2 B2 | E2 [B,DF]2 [B,EG]2 [B,EB]2 | [CE_A]2 .[B,DF]2 [G,E]4 |] %16
w: |||
V:2
 [E,B,E]2 [F,B,D]2 [G,B,E]2 [E,B,]2 | [_A,C]2 [F,A,]2 [E,B,]2 [G,B,]2 | [C,C]2 [D,F,]2 E,2 G,2 | %3
 F,2 z E B,,4 | E,2 F,2 G,2 [E,B,]2 | [_A,C]2 [F,A,]2 [E,B,]2 [G,B,]2 | [C,C]2 [D,F,]2 E,2 G,2 | %7
 F,2 z E B,,4 | B,,2 D,2 E,2 G,2 | F,2 F,E, D,2 [B,,B,]2 | B,2 B,,2 C,2 [E,C]2 | %11
 [D,D]2 [D,C]2 [G,B,]4 | [G,B,D]2 [F,G,D]2 [E,G,E]2 [_D,G,]2 | %13
 [C,_A,]2 [_A,,A,]2 [E,A,E]2 [E,G,E]2 | [C,G,]2 B,,2 E,2 G,,2 | _A,,2 z _A, E,4 |] %16
V:3
 x8 | x8 | x8 | z2 F,,2 z4 | x8 | x8 | x8 | z2 F,,2 z4 | x8 | x8 | x8 | x8 | x8 | x8 | x8 | %15
 z2 B,,2 z4 |] %16

